X: 12894
T: Few Bob, The
R: hornpipe
M: 4/4
K: Gmajor
|:GA|BABG EFGA|~B2 G2 G2 gf|efge dBAG|E2 A2 A2 GA|
~BABG EF GA|~BG (3Bcd e2 ge|dcBA GABA|(3GAG E2 E2:|
ef|g3e defg|a2 d2 d2 ef|g3f efga|bdad a2 ga|
ba (3gab a2 gf|edef g2 fe|dcBA GABA|(3GAG E2 E2 ef|
ga (3gfe de|fg a2 d2 d2|ef ~g3 f ef|ga ba ag a2
gaba (3gab a2|gfedef g2|fedc BAGA|BA (3GAG E2 e2||

